X:1
T:The Well-Tempered Clavier Part II Fuga XV
T:BWV 884
T:J. S. Bach
%%score { ( 1 3 ) | 2 }
L:1/8
M:3/8
K:G
V:1 treble nm="Harp"
V:3 treble 
V:2 bass 
V:1
 z/ d/B/d/g/d/ | B/d/G/d/B/d/ | e/c/A/c/F/A/ | d/B/G/B/E/G/ | c/A/F/A/D/F/ | B/A/G/A/B/c/ | %6
 d/A/B/^c/d/e/ | f/e/d/e/f/g/ | a z a | dg/4f/4g3/2- | gfd | Be/4d/4e3/2- | e/g/f/e/d/e/ | %13
 f/a/g/f/e/f/ | g z z | z b2- | b/e/f<a- | a/d/e<g- | g/c/d<f- | f e2- | e d2- | d^c/B/c | d z z | %23
 z ac- | c/d/B/d/g/d/ | B/d/G/d/B/d/- | d z z | z bd- | d/e/c/e/a/e/ | c/e/A/e/c/e/ | f z z | %31
 z a2- | ab/a/g/f/ | e/f/ g2- | g/c/d<f- | f/B/c<e- | e/A/B<^d- | de/^d/e- | ed/^c/d/e/ | %39
 f/e/d/f/b/f/ | d/f/B/f/d/f/ | g/e/^c/e/A/c/ | f/d/B/d/G/B/ | e/^c/^A/c/F/A/ | d/f/B/d/f/d/ | %45
 B/d/F/B/d- | d3- | d3- | dcc | d/4c/4d/4c/4d/4c/4d/4c/4d/4c/4d/4c/4 | d/4c/4d/4c/4cc | c3- | cBB | %53
 B2- B/B/- | B/B/A/F/G/E/ | F/A/D/F/A/F/ | D/F/A,/D/F/C/ | B,/D/B,/D/G/D/ | B,/D/G,/B,/D/B,/ | %59
[I:staff +1] G,/_B,/E,/G,/B,/D,/ |[I:staff -1] z/ _B,/A,/G,/E/G,/ | %61
[I:staff +1] G,/4F,/4E,/D,[I:staff -1] z | z z2 | B,/4^C/4D/4E/4F/4D/4E/4F/4G/4A/4B/4c/4 | d3- | %65
 d3- | d c2- | c B2- | BA/c/f/a/- | a/gf/g/f/4e/4 | d/4c/4B/4A/4G/4B/4A/4G/4F/4E/4D/4C/4 | %71
{!fermata!C} !fermata!B,3 |] %72
V:2
 z3 | z3 | z3 | z3 | z3 | z3 | z3 | z3 | z3 | z3 | z3 | z3 | z3 | z3 | z/ D/B,/D/G/D/ | %15
 B,/D/G,/D/B,/D/ | E/C/A,/C/F,/A,/ | D/B,/G,/B,/E,/G,/ | C/A,/F,/A,/D,/F,/ | B,/A,/G,/A,/B,/^C/ | %20
 D/^C/B,/A,/G,/F,/ | G,/E,/A,/G,/F,/E,/ | D,/A,/F,/A,/D/A,/ | F,/A,/D,/A,/F,/A,/ | B, z z | %25
 z B,A, | ^G,/B,/G,/B,/E/B,/ | ^G,/B,/E,/B,/G,/B,/ | C z z | z F,E, | ^D,/F,/D,/F,/B,/F,/ | %31
 ^D,/F,/B,,/F,/D,/F,/ | G,/B,/G,/B,/E/B,/ | G,/B,/E,/B,/G,/B,/ | C/A,/F,/A,/D,/F,/ | %35
 B,/G,/E,/G,/C,/E,/ | A,/F,/^D,/F,/B,,/D,/ | G,/F,/E,/F,/G,/A,/ | B,/F,/^G,/^A,/B,/^C/ | %39
 D/^C/B,/C/D/E/ | F/E/ D2- | D/G,/A,<^C- | C/F,/G,<B,- | B,/E,/F,/^A,F,/ | B,B,, z | z D,B,, | %46
 E,E,, z | z ^G,E,/D/ | C/E/A,/C/E/C/ | A,/C/E,/A,/C/G,/ | F,/A,/D,/F,/A,/F,/ | %51
 D,/F,/A,,/D,/F,/C,/ | B,,/D,/G,,/B,,/D,/B,,/ | G,,/B,,/D,,/G,,/B,,/=F,,/ | %54
 E,,/G,,/C,,/D,,/E,,/C,,/ | D,,D,D, | D,3- | D,D,D, | %58
 E,/4D,/4E,/4D,/4E,/4D,/4E,/4D,/4E,/4D,/4^C,/4D,/4 | E,[D,,G,,_B,,][D,,G,,B,,] | D,, z z | %61
 D, z/ D,,/4E,,/4F,,/4G,,/4A,,/4B,,/4 | C,/4A,,/4B,,/4C,/4D,/4E,/4F,/4G,/4A,/4F,/4G,/4A,/4 | %63
 z D,C, | B,,B, z | z z G, | C, z A,, | B,, z G,, | A,, z D, | G,A,B, | z C,D, | !fermata!G,,3 |] %72
V:3
 x3 | x3 | x3 | x3 | x3 | x3 | x3 | z/4 z/4 G/F/A/c/A/ | F/A/D/A/F/A/ | B/G/E/G/^C/E/ | %10
 A/F/D/F/B,/D/ | G/E/^C/E/A,/C/ | F/E/D/E/F/G/ | A/D/E/F/G/A/ | B/A/G/A/B/c/ | d2 d | c2 c | B2 B | %18
 A2 A | G2 G | F2 F | E2 G | F z z | z cA- | AG z | z C=F- | FE z | z dB- | BA z | %29
 z[I:staff +1] C[I:staff -1]A- | A z z | z ^df | Be>^d | e2 B | A2 A | G2 G | F2 A- | AG>G | %38
 F z z | x3 | z z[I:staff +1] F | E2 E | ^D2 D | ^C2 C | B,2[I:staff -1] z | z z z/ A/ | %46
 ^G/B/E/G/B/G/ | E/^G/B,/E/G- | GAA | A3- | AFF | G/4F/4G/4F/4G/4F/4G/4F/4G/4F/4G/4F/4 | %52
 G/4F/4G/4F/4GG | G=F/E/D | C3- | C[I:staff +1]F,F, | %56
 G,/4F,/4G,/4F,/4G,/4F,/4G,/4F,/4G,/4F,/4E,/4F,/4 | G,G,G, |[I:staff -1] G, z z | x3 | %60
[I:staff +1] D,/4^C,/4D,/4C,/4D,/4C,/4D,/4C,/4D,/4C,/4B,,/4C,/4 | x3 | x3 | x3 | %64
[I:staff -1] z/ D/[I:staff +1]B,/[I:staff -1]D/G/D/ |[I:staff +1] D/F/B,/F/D/F/ | %66
[I:staff -1] E/[I:staff +1]C/A,/C/F,/A,/ |[I:staff -1] D/[I:staff +1]B,/G,/B,/E,/G,/ | %68
[I:staff -1] C/[I:staff +1]A,/F,/A,/D,/F,/ | B,CD |[I:staff -1] z[I:staff +1] B,A, | %71
 !fermata!G,3 |] %72

